X:1
T:Title
%%score { ( 1 4 ) | ( 2 3 ) }
L:1/8
M:4/4
K:G
V:1 treble nm="Grand Piano"
V:4 treble 
V:2 treble 
V:3 treble 
V:1
 z4 z2[Q:1/4=100] B2 | B2 AB c2 B2 | A4 z4 | [FA]2 [GB][Ac] [Bd]2 [Ad]2 |[M:3/4] d6 |[M:1/4] G2 | %6
[M:4/4] e3 d c2 B2 | [GB]4 [GA]2 [Fd]2 | d2 ^cB c2 A2 |[M:3/4] [Fd]6 |[M:1/4] [Fd]2 | %11
[M:4/4] [Fd]2 cB [CFA]2 [DB]2 | [B,DG]4 [B,D]2 [B,DG]2 | [CGc]2 .[CGB]2 [Gd]2 [Ge]2 | %14
[M:3/4] [FA]6 |[M:1/4] [FA]2 |[M:4/4] B2 AB c2 Bc |[M:9/8] d2 G- G e2- e [Ge]2 | %18
[M:4/4] [Gd]2 [Ec]B [CFA]2 [DFB]2 |[M:3/4] [B,G]6 |[M:1/4] d2 |[M:4/4] d2 ^cd e2 d2 | d4 B2 G2 | %23
 e3 d c2 B2 |[M:3/4] [FA]6 |[M:1/4] [FA]2 |[M:4/4] B2 AB c2 Bc |[M:9/8] d2 G- G e2- e [Ge]2 | %28
[M:4/4] [Gd]2 [Ec]B [CFA]2 [DFB]2 |[M:3/4] [B,G]6 |] %30
V:2
 z4 z2 [G,DG]2 | [G,DG]2 C[DG] [G,EG]2 [G,DG]2 | z2 C2 [G,B,]2 [G,DG]2 | %3
 [D,D]2 [D,D]2 [D,D]2 [F,C]2 |[M:3/4][K:treble] [G,B,G]6 |[M:1/4] [B,D]2 | %6
[M:4/4] [CG]3 [B,DG] [A,DF]2 [G,DG]2 | [E,^C]4 [E,C]2 [D,D]2 | [A,DF]2 [A,DF]2 [A,EG]2 [A,^CG]2 | %9
[M:3/4][K:bass] [D,D]6 |[M:1/4] [D,A,]2 |[M:4/4] [D,A,]2 A,B, D,2 D,2 | G,4 G,2 =F,2 | %13
 E,2 z[K:treble] c[K:bass] [D,B,]2 [^C,A,]2 |[M:3/4] [D,D]6 |[M:1/4] [D,D]2 | %16
[M:4/4][K:treble] [G,DG]2 [G,DG]2 [A,DF]2 [A,DF]2 |[M:9/8] .[B,D]6 z3[K:bass] | %18
[M:4/4] [D,B,]2 z D D,2 D,2 |[M:3/4] G,,6 |[M:1/4][K:treble] [G,B,G]2 | %21
[M:4/4] [G,B,G]2 [G,G]-[G,=B,G] [G,CG]2 [G,B,G]2 | [G,B,G]4 [G,DG]2 [B,D]2 | %23
 [CG]3 [B,DG] [A,DF]2 [G,DG]2 |[M:3/4][K:bass] [D,D]6 |[M:1/4] [D,D]2 | %26
[M:4/4][K:treble] [G,DG]2 [G,DG]2 [A,DF]2 [A,DF]2 |[M:9/8] .[B,D]6 z3[K:bass] | %28
[M:4/4] [D,B,]2 z D D,2 D,2 |[M:3/4] G,,6 |] %30
V:3
 x8 | z2 G,2 z4 | D,4 z4 | x8 |[M:3/4][K:treble] x6 |[M:1/4] x2 |[M:4/4] x8 | x8 | x8 | %9
[M:3/4][K:bass] x6 |[M:1/4] x2 |[M:4/4] z2 D,2 z4 | x8 | z2 E,2[K:treble][K:bass] z4 |[M:3/4] x6 | %15
[M:1/4] x2 |[M:4/4][K:treble] x8 |[M:9/8] .G3 z [CG]2- [CG][K:bass] [C,C]2 |[M:4/4] z2 D,2 z4 | %19
[M:3/4] x6 |[M:1/4][K:treble] x2 |[M:4/4] z2 ._B,2 z4 | x8 | x8 |[M:3/4][K:bass] x6 |[M:1/4] x2 | %26
[M:4/4][K:treble] x8 |[M:9/8] .G3 z [CG]2- [CG][K:bass] [C,C]2 |[M:4/4] z2 D,2 z4 |[M:3/4] x6 |] %30
V:4
 x8 | x8 | [DG]2 F2 G2 B2 | x8 |[M:3/4] x6 |[M:1/4] x2 |[M:4/4] x8 | x8 | x8 |[M:3/4] x6 | %10
[M:1/4] x2 |[M:4/4] z2 F2 z4 | x8 | x8 |[M:3/4] x6 |[M:1/4] x2 |[M:4/4] x8 |[M:9/8] x9 | %18
[M:4/4] z2 G2 z4 |[M:3/4] x6 |[M:1/4] x2 |[M:4/4] x8 | x8 | x8 |[M:3/4] x6 |[M:1/4] x2 | %26
[M:4/4] x8 |[M:9/8] x9 |[M:4/4] z2 G2 z4 |[M:3/4] x6 |] %30

